X:3105
T:Johnny "Watt" Henry's Reel
O:england
R:reel
M:C|
K:G
G2Bd dGBd|dGBd cAAD|G2Bd dGBe|1 dBAd BGGD:|2 dBAd BGG2||
~g3d ~e3g|d2Bd cAAd|~g3d ~e3g|dBAd BG~G2|
~g3d ~e3g|d2Bd cAAF|GA (3Bcd e2fa|gedc BGGD||


